svgs/sharp-regular/tombstone-blank.svg

<svg xmlns="http://www.w3.org/2000/svg" viewBox="0 0 448 512"><!--! Font Awesome Pro 6.6.0 by @fontawesome - https://fontawesome.com License - https://fontawesome.com/license (Commercial License) Copyright 2024 Fonticons, Inc. --><path d="M368 192l0 240 48 0 0-240C416 86 330 0 224 0S32 86 32 192l0 240 48 0 0-240c0-79.5 64.5-144 144-144s144 64.5 144 144zM24 464L0 464l0 48 24 0 400 0 24 0 0-48-24 0L24 464z"/></svg>

<svg xmlns="http://www.w3.org/2000/svg" viewBox="0 0 448 512"><!--! Font Awesome Pro 6.4.0 by @fontawesome - https://fontawesome.com License - https://fontawesome.com/license (Commercial License) Copyright 2023 Fonticons, Inc. --><path d="M368 192V432h48V192C416 86 330 0 224 0S32 86 32 192V432H80V192c0-79.5 64.5-144 144-144s144 64.5 144 144zM24 464H0v48H24 424h24V464H424 24z"/></svg>
